packages/kaspersky-hexa-ui-icons/src/iconsSVGs/16/Tutorial.svg

<svg width="16" height="16" viewBox="0 0 16 16" fill="none" xmlns="http://www.w3.org/2000/svg">
<path fill-rule="evenodd" clip-rule="evenodd" d="M7.70277 1.74858C7.88919 1.65282 8.11035 1.65282 8.29677 1.74858L14.7075 5.04168C14.7592 5.06689 14.807 5.09876 14.8499 5.13616C14.867 5.15109 14.8833 5.16687 14.8987 5.18342C15.0067 5.29948 15.0728 5.45512 15.0728 5.6262V8.88897C15.0728 9.24795 14.7818 9.53897 14.4228 9.53897C14.0638 9.53897 13.7728 9.24795 13.7728 8.88897V6.69079L12.7644 7.2088V11.7064C12.7644 11.9567 12.6206 12.1848 12.3947 12.2928L8.28015 14.2597C8.10287 14.3444 7.89677 14.3444 7.71949 14.2597L3.6049 12.2928C3.37902 12.1848 3.23523 11.9567 3.23523 11.7064V7.20885L1.27976 6.20435C1.06302 6.09302 0.926758 5.86983 0.926758 5.62617C0.926758 5.38252 1.06302 5.15933 1.27976 5.04799L7.70277 1.74858ZM8.29677 9.50377L11.4644 7.87659V11.2966L7.99982 12.9528L4.53523 11.2966V7.87664L7.70277 9.50377C7.88919 9.59953 8.11035 9.59953 8.29677 9.50377ZM2.99931 5.62617L7.99977 8.19484L13.0002 5.62617L7.99977 3.0575L2.99931 5.62617Z" fill="black"/>
</svg>

<svg xmlns="http://www.w3.org/2000/svg" width="16" height="16" fill="none" viewBox="0 0 16 16"><path fill="#000" fill-rule="evenodd" d="M7.7028 1.7486a.65.65 0 0 1 .594 0l6.4107 3.293a.651.651 0 0 1 .3653.5846V8.889a.65.65 0 1 1-1.3 0V6.6908l-1.0084.518v4.4976a.65.65 0 0 1-.3697.5864l-4.1145 1.9669a.65.65 0 0 1-.5607 0l-4.1146-1.9669a.65.65 0 0 1-.3697-.5864V7.2088L1.2798 6.2044a.65.65 0 0 1 0-1.1563zm.594 7.7552 3.1676-1.6272v3.42l-3.4646 1.6562-3.4646-1.6562v-3.42l3.1676 1.6272a.65.65 0 0 0 .594 0M2.9993 5.6262l5.0005 2.5686 5.0004-2.5686-5.0004-2.5687z"/></svg>
